assets/images/stars/stars-4.5.svg

<?xml version="1.0" encoding="UTF-8"?>
<svg width="118px" height="20px" viewBox="0 0 118 20" version="1.1" xmlns="http://www.w3.org/2000/svg" xmlns:xlink="http://www.w3.org/1999/xlink">
    <!-- Generator: Sketch 60 (88103) - https://sketch.com -->
    <title>Group 17</title>
    <desc>Created with Sketch.</desc>
    <g id="Page-1" stroke="none" stroke-width="1" fill="none" fill-rule="evenodd">
        <g id="Desktop-HD-Copy-6" transform="translate(-943.000000, -2316.000000)" fill="#4082FF">
            <g id="Group-15-Copy-2" transform="translate(877.000000, 2082.000000)">
                <g id="Group-18" transform="translate(66.000000, 209.000000)">
                    <g id="Group-17" transform="translate(0.000000, 25.000000)">
                        <path d="M10.2468341,16.9509594 L5.46162155,19.4666945 C4.76327214,19.8338385 3.89951906,19.5653435 3.53237505,18.8669941 C3.38617638,18.5889077 3.33572684,18.2703819 3.38883662,17.9607281 L4.3027309,12.6323156 L0.431412603,8.85871291 C-0.133563937,8.30799689 -0.145124375,7.40354937 0.405591642,6.83857283 C0.624889649,6.61359621 0.91223595,6.46718595 1.22314599,6.42200808 L6.5731763,5.64460317 L8.96578259,0.796653315 C9.31495729,0.0891480867 10.1715656,-0.201336197 10.8790709,0.147838507 C11.1608032,0.286881706 11.3888425,0.514921022 11.5278857,0.796653315 L13.920492,5.64460317 L19.2705223,6.42200808 C20.0513006,6.53546182 20.5922741,7.26038018 20.4788204,8.04115855 C20.4336425,8.3520686 20.2872323,8.6394149 20.0622557,8.85871291 L16.1909374,12.6323156 L17.1048316,17.9607281 C17.2382045,18.7383516 16.7159362,19.4768601 15.9383127,19.6102329 C15.6286589,19.6633427 15.3101331,19.6128932 15.0320467,19.4666945 L10.2468341,16.9509594 Z" id="Star"></path>
                        <path d="M34.4222397,16.9509594 L29.6370271,19.4666945 C28.9386777,19.8338385 28.0749246,19.5653435 27.7077806,18.8669941 C27.5615819,18.5889077 27.5111324,18.2703819 27.5642422,17.9607281 L28.4781365,12.6323156 L24.6068182,8.85871291 C24.0418416,8.30799689 24.0302812,7.40354937 24.5809972,6.83857283 C24.8002952,6.61359621 25.0876415,6.46718595 25.3985515,6.42200808 L30.7485819,5.64460317 L33.1411881,0.796653315 C33.4903628,0.0891480867 34.3469712,-0.201336197 35.0544764,0.147838507 C35.3362087,0.286881706 35.564248,0.514921022 35.7032912,0.796653315 L38.0958975,5.64460317 L43.4459278,6.42200808 C44.2267062,6.53546182 44.7676797,7.26038018 44.654226,8.04115855 C44.6090481,8.3520686 44.4626378,8.6394149 44.2376612,8.85871291 L40.3663429,12.6323156 L41.2802372,17.9607281 C41.4136101,18.7383516 40.8913417,19.4768601 40.1137182,19.6102329 C39.8040645,19.6633427 39.4855387,19.6128932 39.2074523,19.4666945 L34.4222397,16.9509594 Z" id="Star-Copy"></path>
                        <path d="M58.707954,16.9509594 L53.9227414,19.4666945 C53.224392,19.8338385 52.3606389,19.5653435 51.9934949,18.8669941 C51.8472962,18.5889077 51.7968467,18.2703819 51.8499565,17.9607281 L52.7638507,12.6323156 L48.8925324,8.85871291 C48.3275559,8.30799689 48.3159955,7.40354937 48.8667115,6.83857283 C49.0860095,6.61359621 49.3733558,6.46718595 49.6842658,6.42200808 L55.0342961,5.64460317 L57.4269024,0.796653315 C57.7760771,0.0891480867 58.6326855,-0.201336197 59.3401907,0.147838507 C59.621923,0.286881706 59.8499623,0.514921022 59.9890055,0.796653315 L62.3816118,5.64460317 L67.7316421,6.42200808 C68.5124205,6.53546182 69.053394,7.26038018 68.9399402,8.04115855 C68.8947624,8.3520686 68.7483521,8.6394149 68.5233755,8.85871291 L64.6520572,12.6323156 L65.5659515,17.9607281 C65.6993243,18.7383516 65.177056,19.4768601 64.3994325,19.6102329 C64.0897788,19.6633427 63.7712529,19.6128932 63.4931665,19.4666945 L58.707954,16.9509594 Z" id="Star-Copy-2"></path>
                        <path d="M82.9936683,16.9509594 L78.2084557,19.4666945 C77.5101063,19.8338385 76.6463532,19.5653435 76.2792092,18.8669941 C76.1330105,18.5889077 76.082561,18.2703819 76.1356707,17.9607281 L77.049565,12.6323156 L73.1782467,8.85871291 C72.6132702,8.30799689 72.6017098,7.40354937 73.1524258,6.83857283 C73.3717238,6.61359621 73.6590701,6.46718595 73.9699801,6.42200808 L79.3200104,5.64460317 L81.7126167,0.796653315 C82.0617914,0.0891480867 82.9183998,-0.201336197 83.625905,0.147838507 C83.9076373,0.286881706 84.1356766,0.514921022 84.2747198,0.796653315 L86.6673261,5.64460317 L92.0173564,6.42200808 C92.7981348,6.53546182 93.3391083,7.26038018 93.2256545,8.04115855 C93.1804767,8.3520686 93.0340664,8.6394149 92.8090898,8.85871291 L88.9377715,12.6323156 L89.8516658,17.9607281 C89.9850386,18.7383516 89.4627703,19.4768601 88.6851468,19.6102329 C88.3754931,19.6633427 88.0569672,19.6128932 87.7788808,19.4666945 L82.9936683,16.9509594 Z" id="Star-Copy-3"></path>
                        <g id="Group-16" transform="translate(97.032548, 0.000000)">
                            <path d="M10.2447515,3.51236436e-06 L10.244,16.9510035 L5.46162155,19.4666945 C4.76327214,19.8338385 3.89951906,19.5653435 3.53237505,18.8669941 C3.38617638,18.5889077 3.33572684,18.2703819 3.38883662,17.9607281 L4.3027309,12.6323156 L0.431412603,8.85871291 C-0.133563937,8.30799689 -0.145124375,7.40354937 0.405591642,6.83857283 C0.624889649,6.61359621 0.91223595,6.46718595 1.22314599,6.42200808 L6.5731763,5.64460317 L8.96578259,0.796653315 C9.21414035,0.293425528 9.71921188,0.00117118276 10.2447515,3.51236436e-06 Z" id="Combined-Shape"></path>
                            <path d="M10.2468341,16.9509594 L5.46162155,19.4666945 C4.76327214,19.8338385 3.89951906,19.5653435 3.53237505,18.8669941 C3.38617638,18.5889077 3.33572684,18.2703819 3.38883662,17.9607281 L4.3027309,12.6323156 L0.431412603,8.85871291 C-0.133563937,8.30799689 -0.145124375,7.40354937 0.405591642,6.83857283 C0.624889649,6.61359621 0.91223595,6.46718595 1.22314599,6.42200808 L6.5731763,5.64460317 L8.96578259,0.796653315 C9.31495729,0.0891480867 10.1715656,-0.201336197 10.8790709,0.147838507 C11.1608032,0.286881706 11.3888425,0.514921022 11.5278857,0.796653315 L13.920492,5.64460317 L19.2705223,6.42200808 C20.0513006,6.53546182 20.5922741,7.26038018 20.4788204,8.04115855 C20.4336425,8.3520686 20.2872323,8.6394149 20.0622557,8.85871291 L16.1909374,12.6323156 L17.1048316,17.9607281 C17.2382045,18.7383516 16.7159362,19.4768601 15.9383127,19.6102329 C15.6286589,19.6633427 15.3101331,19.6128932 15.0320467,19.4666945 L10.2468341,16.9509594 Z" id="Star-Copy-4" opacity="0.25"></path>
                        </g>
                    </g>
                </g>
            </g>
        </g>
    </g>
</svg>

<svg xmlns="http://www.w3.org/2000/svg" width="118" height="20" fill="#4082ff" fill-rule="evenodd"><path d="M10.247 16.95l-4.785 2.516a1.43 1.43 0 0 1-2.073-1.506l.914-5.328L.43 8.86a1.43 1.43 0 0 1 .792-2.437l5.35-.777L8.966.797a1.43 1.43 0 0 1 1.913-.649 1.43 1.43 0 0 1 .649.649l2.393 4.848 5.35.777a1.43 1.43 0 0 1 .792 2.437l-3.87 3.774.914 5.328a1.43 1.43 0 0 1-2.073 1.506L10.25 16.95zm24.175 0l-4.785 2.516a1.43 1.43 0 0 1-2.073-1.506l.914-5.328-3.87-3.774a1.43 1.43 0 0 1 .792-2.437l5.35-.777 2.4-4.847a1.43 1.43 0 0 1 1.913-.649 1.43 1.43 0 0 1 .649.649l2.393 4.848 5.35.777a1.43 1.43 0 0 1 .792 2.437l-3.87 3.774.914 5.328a1.43 1.43 0 0 1-2.073 1.506l-4.785-2.516zm24.286 0l-4.785 2.516a1.43 1.43 0 0 1-2.073-1.506l.914-5.328-3.87-3.774a1.43 1.43 0 0 1 .792-2.437l5.35-.777 2.39-4.847A1.43 1.43 0 0 1 59.34.148a1.43 1.43 0 0 1 .649.649l2.393 4.848 5.35.777a1.43 1.43 0 0 1 .792 2.437l-3.87 3.774.914 5.328a1.43 1.43 0 0 1-2.073 1.506L58.7 16.95zm24.286 0l-4.785 2.516a1.43 1.43 0 0 1-2.073-1.506l.914-5.328-3.87-3.774a1.43 1.43 0 0 1 .792-2.437l5.35-.777 2.39-4.847a1.43 1.43 0 0 1 1.913-.649 1.43 1.43 0 0 1 .649.649l2.393 4.848 5.35.777a1.43 1.43 0 0 1 .792 2.437l-3.87 3.774.914 5.328a1.43 1.43 0 0 1-2.073 1.506l-4.785-2.516zM107.278 0l-.001 16.95-4.782 2.516a1.43 1.43 0 0 1-2.073-1.506l.914-5.328-3.87-3.774a1.43 1.43 0 0 1 .792-2.437l5.35-.777L106 .797A1.43 1.43 0 0 1 107.278 0z"/><path d="M107.28 16.95l-4.785 2.516a1.43 1.43 0 0 1-2.073-1.506l.914-5.328-3.87-3.774a1.43 1.43 0 0 1 .792-2.437l5.35-.777L106 .797a1.43 1.43 0 0 1 1.913-.649 1.43 1.43 0 0 1 .649.649l2.393 4.848 5.35.777a1.43 1.43 0 0 1 .792 2.437l-3.87 3.774.914 5.328a1.43 1.43 0 0 1-2.073 1.506l-4.785-2.516z" opacity=".25"/></svg>
